X: 1
T: Anderson's Rant
T: 8 x 32R 3C (MMM I)
P: Anderson's Rant
C: Wm. Marshall, arr. T. Traub 12-17-2001
M: 4/4
L: 1/8
R: Reel
K: C
|: "C"CEGE c2 ce|"C"GECE "G"D2 DE|"C"CEGE "F"cdfa|"G"gede "C"c2 c2 :|
"C"gecg ecge|"C"gece "G"d2 d2|"C"gecg ecge|"G" fdge "C"c2 c2|
"C"gecg ecge|"C"gece "G"d2 d2|"C"GcFc "F"Ecfa|"G"gede "C"c2 c2 |]

